X: 3665
T: Billy Barlow
R: jig
M: 6/8
K: Amixolydian
|:cd|ecA ecA|ecA ABc|dBG dBG|dBG GAB|
c2c dcd|ef^g az2|a^ge edB|c2A A:|
|:cd|e3 efd|ecA ABc|d3 dge|dBG GAB|
c2c dcd|ef^g az2|a^ge edB|c2A A:|

